modules/defaultemblems/img/Musubi-kashiwa.svg

<?xml version="1.0" encoding="UTF-8" standalone="no"?>
<!-- Created with Inkscape (http://www.inkscape.org/) -->
<!-- https://commons.wikimedia.org/wiki/File:Musubi-kashiwa.svg -->
<!-- Image Copyright © 2007 Petr Sládek alias slady -->
<svg height="600" viewBox="0 0 600 600" width="600" xmlns="http://www.w3.org/2000/svg">
  <path class="emblem-color" d="m303.3125 50.875c-1.42538 1.092012-2.84656 2.193696-4.25 3.3125-.3771.299769-.7494.604649-1.125.90625-.25456.205104-.49618.419018-.75.625-.33385.26992-.66737.541114-1 .8125-.85842.703217-1.71269 1.411756-2.5625 2.125-.31813.265805-.65182.514058-.96875.78125-.49637.420387-.97538.857452-1.46875 1.28125-.79794.682378-1.58515 1.371112-2.375 2.0625-.21559.189427-.44125.372417-.65625.5625-.21641.19066-.44047.371154-.65625.5625-.73605.654802-1.45849 1.337526-2.1875 2-.9493.860995-1.90759 1.718988-2.84375 2.59375-54.21629 50.65148-88.125 122.75709-88.125 202.75 0 77.9259 32.18927 148.36097 83.96875 198.78125 2.14041-1.56235 4.25638-3.14533 6.34375-4.78125 5.00231-3.84253 9.83084-7.89702 14.5-12.125-48.12646-45.70956-78.125-110.31445-78.125-181.875 0-73.5304 31.71723-139.6754 82.1875-185.5625 49.75903 45.84559 80.9375 111.55379 80.9375 184.5 0 6.21369-.21147 12.36793-.65625 18.46875 8.81433 2.63571 17.4839 5.7101 26 9.1875.90069-9.09347 1.375-18.32712 1.375-27.65625 0-79.34176-33.36791-150.94387-86.8125-201.53125-.04829-.045705-.10793-.07933-.15625-.125-.44241-.418164-.86735-.834718-1.3125-1.25-1.17478-1.095565-2.36818-2.174913-3.5625-3.25-1.23282-1.110923-2.46609-2.223494-3.71875-3.3125-.25649-.22267-.52393-.434507-.78125-.65625-.21086-.181973-.41359-.381151-.625-.5625-1.57838-1.351927-3.17287-2.683008-4.78125-4-.15532-.127324-.31315-.248006-.46875-.375-.18434-.150292-.37778-.287669-.5625-.4375-1.58099-1.283595-3.1718-2.56323-4.78125-3.8125zm-.15625 230.09375c-26.85554 0-52.80864 3.83935-77.375 10.96875.7736 8.9659 2.05971 17.89546 3.8125 26.71875 23.2692-7.13794 47.965-11 73.5625-11 121.81925 0 223.38875 87.00429 246.03125 202.21875-24.36748 7.90457-50.35196 12.1875-77.34375 12.1875-54.32876 0-104.63618-17.29425-145.71875-46.6875-6.63833 6.27063-13.58699 12.2229-20.8125 17.8125 46.39513 34.87802 104.06164 55.56249 166.53125 55.5625 28.22165 0 55.46387-4.2197 81.125-12.0625.97615-.29834 1.93468-.62871 2.90625-.9375 3.42966-1.09008 6.85016-2.21914 10.21875-3.4375.10566-.03821.2069-.08666.3125-.125.40718-.14775.81245-.2879 1.21875-.4375 3.80122-1.39964 7.55979-2.87818 11.28125-4.4375-.46608-4.16289-1.04298-8.3022-1.6875-12.40625-.02594-.16517-.03627-.33492-.0625-.5-.04331-.27108-.0809-.54168-.125-.8125-.30228-1.86668-.62903-3.70841-.96875-5.5625-.07303-.39716-.14403-.79093-.21875-1.1875-.32206-1.71461-.67686-3.42139-1.03125-5.125-.1101-.52926-.19927-1.06556-.3125-1.59375-.00872.00392-.02253-.00392-.03125 0-26.82906-125.18803-138.15179-219.15625-271.3125-219.15625zm-110.90625 23.09375c-80.61017 35.22285-141.293344 107.65179-160.3125 195.53125-.100895.46657-.182519.93872-.28125 1.40625-.290167 1.37537-.574055 2.74222-.84375 4.125-.14124.72024-.301606 1.43392-.4375 2.15625-.33979 1.81944-.664688 3.66828-.96875 5.5-.013914.08301-.01741.16696-.03125.25-.260866 1.5804-.515987 3.16074-.75 4.75-.200644 1.34933-.382127 2.70735-.5625 4.0625-.026044.19719-.036871.39643-.0625.59375-.18625 1.42377-.399394 2.85156-.5625 4.28125 6.121186 2.53254 12.355102 4.83934 18.6875 6.9375 1.325402.43889 2.665492.86172 4 1.28125 26.287897 8.26838 54.24576 12.74999 83.25 12.75 131.53844.00001 241.78341-91.66295 270.3125-214.5625-8.21043-3.67899-16.64527-6.91345-25.21875-9.6875-24.43324 112.89584-124.91887 197.5625-245.09375 197.5625-26.56491 0-52.15371-4.14214-76.1875-11.8125 15.752221-78.91313 68.5897-144.50963 139.53125-177.84375-1.94096-9.00895-3.42448-18.11956-4.46875-27.28125z"/>
</svg>

<?xml version="1.0" encoding="UTF-8" standalone="no"?>
<!-- Created with Inkscape (http://www.inkscape.org/) -->
<!-- https://commons.wikimedia.org/wiki/File:Musubi-kashiwa.svg -->
<!-- Image Copyright © 2007 Petr Sládek alias slady -->
<svg
   xmlns:dc="http://purl.org/dc/elements/1.1/"
   xmlns:cc="http://web.resource.org/cc/"
   xmlns:rdf="http://www.w3.org/1999/02/22-rdf-syntax-ns#"
   xmlns:svg="http://www.w3.org/2000/svg"
   xmlns="http://www.w3.org/2000/svg"
   xmlns:sodipodi="http://sodipodi.sourceforge.net/DTD/sodipodi-0.dtd"
   xmlns:inkscape="http://www.inkscape.org/namespaces/inkscape"
   viewBox="0 0 600 600"
   width="600"
   height="600"
   id="svg2"
   inkscape:label="Pozadí"
   sodipodi:version="0.32"
   inkscape:version="0.44.1"
   sodipodi:docbase="G:\slady\pic\svg\wikipedia\todo"
   sodipodi:docname="Musubi_kashiwa.svg"
   version="1.0">
  <defs
     id="defs3" />
  <sodipodi:namedview
     id="base"
     pagecolor="#ffffff"
     bordercolor="#666666"
     borderopacity="1.0"
     inkscape:pageopacity="0.0"
     inkscape:pageshadow="2"
     inkscape:zoom="1.2866667"
     inkscape:cx="300"
     inkscape:cy="300"
     inkscape:document-units="px"
     inkscape:current-layer="layer1"
     inkscape:window-width="1280"
     inkscape:window-height="968"
     inkscape:window-x="-4"
     inkscape:window-y="-4"
     width="600px"
     height="600px" />
  <metadata
     id="metadata6">
    <rdf:RDF>
      <cc:Work
         rdf:about="">
        <dc:format>image/svg+xml</dc:format>
        <dc:type
           rdf:resource="http://purl.org/dc/dcmitype/StillImage" />
      </cc:Work>
    </rdf:RDF>
  </metadata>
  <g
     inkscape:label="Vrstva 1"
     inkscape:groupmode="layer"
     id="layer1">
    <g
       id="g6399">
      <path
         id="path6350"
         class="emblem-color"
         d="M 303.3125 50.875 C 301.88712 51.967012 300.46594 53.068696 299.0625 54.1875 C 298.6854 54.487269 298.3131 54.792149 297.9375 55.09375 C 297.68294 55.298854 297.44132 55.512768 297.1875 55.71875 C 296.85365 55.98867 296.52013 56.259864 296.1875 56.53125 C 295.32908 57.234467 294.47481 57.943006 293.625 58.65625 C 293.30687 58.922055 292.97318 59.170308 292.65625 59.4375 C 292.15988 59.857887 291.68087 60.294952 291.1875 60.71875 C 290.38956 61.401128 289.60235 62.089862 288.8125 62.78125 C 288.59691 62.970677 288.37125 63.153667 288.15625 63.34375 C 287.93984 63.53441 287.71578 63.714904 287.5 63.90625 C 286.76395 64.561052 286.04151 65.243776 285.3125 65.90625 C 284.3632 66.767245 283.40491 67.625238 282.46875 68.5 C 228.25246 119.15148 194.34375 191.25709 194.34375 271.25 C 194.34375 349.1759 226.53302 419.61097 278.3125 470.03125 C 280.45291 468.4689 282.56888 466.88592 284.65625 465.25 C 289.65856 461.40747 294.48709 457.35298 299.15625 453.125 C 251.02979 407.41544 221.03125 342.81055 221.03125 271.25 C 221.03125 197.7196 252.74848 131.5746 303.21875 85.6875 C 352.97778 131.53309 384.15625 197.24129 384.15625 270.1875 C 384.15625 276.40119 383.94478 282.55543 383.5 288.65625 C 392.31433 291.29196 400.9839 294.36635 409.5 297.84375 C 410.40069 288.75028 410.875 279.51663 410.875 270.1875 C 410.875 190.84574 377.50709 119.24363 324.0625 68.65625 C 324.01421 68.610545 323.95457 68.57692 323.90625 68.53125 C 323.46384 68.113086 323.0389 67.696532 322.59375 67.28125 C 321.41897 66.185685 320.22557 65.106337 319.03125 64.03125 C 317.79843 62.920327 316.56516 61.807756 315.3125 60.71875 C 315.05601 60.49608 314.78857 60.284243 314.53125 60.0625 C 314.32039 59.880527 314.11766 59.681349 313.90625 59.5 C 312.32787 58.148073 310.73338 56.816992 309.125 55.5 C 308.96968 55.372676 308.81185 55.251994 308.65625 55.125 C 308.47191 54.974708 308.27847 54.837331 308.09375 54.6875 C 306.51276 53.403905 304.92195 52.12427 303.3125 50.875 z M 303.15625 280.96875 C 276.30071 280.96875 250.34761 284.8081 225.78125 291.9375 C 226.55485 300.9034 227.84096 309.83296 229.59375 318.65625 C 252.86295 311.51831 277.55875 307.65625 303.15625 307.65625 C 424.9755 307.65625 526.545 394.66054 549.1875 509.875 C 524.82002 517.77957 498.83554 522.0625 471.84375 522.0625 C 417.51499 522.0625 367.20757 504.76825 326.125 475.375 C 319.48667 481.64563 312.53801 487.5979 305.3125 493.1875 C 351.70763 528.06552 409.37414 548.74999 471.84375 548.75 C 500.0654 548.75 527.30762 544.5303 552.96875 536.6875 C 553.9449 536.38916 554.90343 536.05879 555.875 535.75 C 559.30466 534.65992 562.72516 533.53086 566.09375 532.3125 C 566.19941 532.27429 566.30065 532.22584 566.40625 532.1875 C 566.81343 532.03975 567.2187 531.8996 567.625 531.75 C 571.42622 530.35036 575.18479 528.87182 578.90625 527.3125 C 578.44017 523.14961 577.86327 519.0103 577.21875 514.90625 C 577.19281 514.74108 577.18248 514.57133 577.15625 514.40625 C 577.11294 514.13517 577.07535 513.86457 577.03125 513.59375 C 576.72897 511.72707 576.40222 509.88534 576.0625 508.03125 C 575.98947 507.63409 575.91847 507.24032 575.84375 506.84375 C 575.52169 505.12914 575.16689 503.42236 574.8125 501.71875 C 574.7024 501.18949 574.61323 500.65319 574.5 500.125 C 574.49128 500.12892 574.47747 500.12108 574.46875 500.125 C 547.63969 374.93697 436.31696 280.96875 303.15625 280.96875 z M 192.25 304.0625 C 111.63983 339.28535 50.956656 411.71429 31.9375 499.59375 C 31.836605 500.06032 31.754981 500.53247 31.65625 501 C 31.366083 502.37537 31.082195 503.74222 30.8125 505.125 C 30.67126 505.84524 30.510894 506.55892 30.375 507.28125 C 30.03521 509.10069 29.710312 510.94953 29.40625 512.78125 C 29.392336 512.86426 29.38884 512.94821 29.375 513.03125 C 29.114134 514.61165 28.859013 516.19199 28.625 517.78125 C 28.424356 519.13058 28.242873 520.4886 28.0625 521.84375 C 28.036456 522.04094 28.025629 522.24018 28 522.4375 C 27.81375 523.86127 27.600606 525.28906 27.4375 526.71875 C 33.558686 529.25129 39.792602 531.55809 46.125 533.65625 C 47.450402 534.09514 48.790492 534.51797 50.125 534.9375 C 76.412897 543.20588 104.37076 547.68749 133.375 547.6875 C 264.91344 547.68751 375.15841 456.02455 403.6875 333.125 C 395.47707 329.44601 387.04223 326.21155 378.46875 323.4375 C 354.03551 436.33334 253.54988 521 133.375 521 C 106.81009 521 81.22129 516.85786 57.1875 509.1875 C 72.939721 430.27437 125.7772 364.67787 196.71875 331.34375 C 194.77779 322.3348 193.29427 313.22419 192.25 304.0625 z "
         style="fill:black;fill-opacity:1;stroke:none" />
    </g>
  </g>
</svg>
